X: 25491
T: Mare Nubium
R: reel
M: 4/4
K: Dmajor
|:e2 dB deBA|BdBA G3 A|BdeB d2 Bd|e/f/g dB BA A/A/A|
e2 dB deBA|BdBA G3 A|BdeB d2 Bd|e/f/g dB BA A/A/A:|
|:a2 ge g2 ed|B/c/d BA G3 A|BdeB d2 Bd|e/f/g dB BA A/A/A|
a2 ge g2 ed|B/c/d BA G3 A|BdeB d2 Bd|e/f/g dB BA A/A/A:|

